src/16/panel/state-sync.svg

<svg xmlns="http://www.w3.org/2000/svg" width="16" height="16" version="1.1">
 <defs>
  <style id="current-color-scheme" type="text/css">
   .ColorScheme-Text { color:#dfdfdf; } .ColorScheme-Highlight { color:#4285f4; }
  </style>
 </defs>
 <path style="fill:currentColor" class="ColorScheme-Text" d="M 8,1 A 7,7 0 0 0 1,8 7,7 0 0 0 8,15 7,7 0 0 0 15,8 7,7 0 0 0 8,1 Z M 8.1445,3.998 V 4 H 8.1465 C 9.4555,4.048 10.647,4.7374 11.35,5.8184 L 12.738,5.3555 11.168,8.502 8.0215,6.9277 9.2988,6.502 C 8.9608,6.208 8.5363,6.015 8.0703,5.998 7.3283,5.971 6.6357,6.3531 6.2637,6.9961 L 4.5312,5.9961 C 5.2713,4.7141 6.665,3.943 8.1445,3.998 Z M 4.832,7.498 7.9785,9.0723 6.7012,9.498 C 7.039,9.792 7.4637,9.983 7.9297,10 8.6717,10.027 9.3643,9.645 9.7363,9.002 L 11.469,10.002 C 10.729,11.284 9.3345,12.055 7.8555,12 6.547,11.952 5.3553,11.263 4.6523,10.182 L 3.2637,10.645 Z"/>
</svg>

<svg xmlns="http://www.w3.org/2000/svg" width="16" height="16"><defs><style id="current-color-scheme" type="text/css"></style></defs><path d="M8 1a7 7 0 0 0-7 7 7 7 0 0 0 7 7 7 7 0 0 0 7-7 7 7 0 0 0-7-7zm.145 2.998V4h.002c1.309.048 2.5.737 3.203 1.818l1.388-.462-1.57 3.146-3.146-1.574 1.277-.426a1.985 1.985 0 0 0-1.229-.504 1.999 1.999 0 0 0-1.806.998l-1.733-1a4.006 4.006 0 0 1 3.614-1.998zm-3.313 3.5l3.147 1.574-1.278.426c.338.294.763.485 1.229.502a1.999 1.999 0 0 0 1.806-.998l1.733 1A4.007 4.007 0 0 1 7.856 12a4.001 4.001 0 0 1-3.204-1.818l-1.388.463z" fill="currentColor" color="#bebebe"/></svg>
